public/assets/imgs/download-icon.svg

<svg fill="none" height="42" viewBox="0 0 42 42" width="42" xmlns="http://www.w3.org/2000/svg"><path clip-rule="evenodd" d="m7.27941 2.48376c-.23816.22052-.27941.45116-.27941.51624v20.0809c3.2175.3128 6.0831 1.0213 8.2146 1.791.8832.319 1.6569.6543 2.2854.9854v-20.61615c-.1187-.11096-.3168-.26268-.6033-.44685-.5973-.38402-1.4525-.82878-2.4225-1.25314-1.9824-.86729-4.1951-1.54116-5.4742-1.54116-1.0118 0-1.49742.27712-1.72059.48376zm12.22059 2.75421v20.54653c.2311-.1065.4702-.2046.7088-.2948 1.2214-.462 2.6598-.8004 3.6123-.9736.5434-.0988 1.064.2616 1.1628.805s-.2616 1.064-.805 1.1628c-.8809.1601-2.1924.4717-3.2627.8764-.5412.2047-.965.4128-1.2355.6049-.104.0739-.16.1267-.1881.1571-.0603.4946-.4817.8777-.9926.8777h-15c-.61848 0-1.48679-.213-2.21628-.8433-.765673-.6616-1.28372-1.7009-1.28372-3.1567v-18.5c0-.49336.139781-1.21113.588466-1.8343.485394-.67417 1.285614-1.1657 2.411534-1.1657h2v-.5c0-.60159.25875-1.37094.92059-1.98376.67683-.626689 1.69121-1.01624 3.07941-1.01624 1.7209 0 4.2582.826126 6.2758 1.70884 1.03.45064 1.9873.94338 2.7025 1.40311.1823.1172.3576.23779.5191.36045.1609-.12268.3358-.24325.5181-.36045.7176-.46133 1.6838-.95503 2.7419-1.40667 2.0873-.890908 4.7376-1.70528 6.7426-1.70528.5974 0 1.5073.114272 2.3077.498477.8237.395367 1.6923 1.176233 1.6923 2.501523v.61932c.5151-.15918 1.1037-.3259 1.6652-.4464.5801-.1245 1.2387-.22498 1.7922-.17049.2732.0269.6391.10145.9583.3345.3757.27423.5843.6937.5843 1.16307v12.5c0 .5523-.4477 1-1 1s-1-.4477-1-1v-12.00939c-.2302.0125-.5391.05707-.9152.13778-.7181.15413-1.4951.39638-2.0848.59095v11.28066c0 .5523-.4477 1-1 1s-1-.4477-1-1v-14c0-.27471-.1314-.49384-.5577-.69848-.4496-.21579-1.0397-.30152-1.4423-.30152-1.595 0-3.9447.68563-5.9574 1.54472-.9919.42336-1.8507.86716-2.4456 1.24958-.2849.18314-.4804.33395-.597.44367zm-14.5.26203h-2c-.47408 0-.67386.17513-.78847.3343-.15131.21016-.21153.49239-.21153.6657v18.5c0 .9442.31529 1.4049.59128 1.6433.31218.2697.69386.3567.90872.3567h11.6867c-.206-.0821-.4232-.1646-.6513-.2469-2.1655-.782-5.20025-1.5123-8.60665-1.7556-.5233-.0374-.92875-.4729-.92875-.9975zm12.5889 22.8219c-.0007 0-.0061-.0063-.0138-.0186.0107.0125.0146.0187.0138.0186zm11.4111-5.3176v8.9957c0 .5523-.4477 1-1 1h-3.0858l6.5858 6.5858 6.5858-6.5858h-3.0858c-.5523 0-1-.4477-1-1v-8.9995c-.0001 0 .0001 0 0 0l-.0043-.0005h-4.9952zm-1.6115-1.2136c.3354-.4658.8856-.7907 1.6115-.7907h5c.3267 0 .7945.0898 1.2093.3885.4658.3354.7907.8856.7907 1.6115v8h4.5c.4045 0 .7691.2436.9239.6173s.0692.8038-.2168 1.0898l-9 9c-.3905.3905-1.0237.3905-1.4142 0l-9-9c-.286-.286-.3716-.7161-.2168-1.0898s.5194-.6173.9239-.6173h4.5v-8c0-.3267.0898-.7945.3885-1.2093z" fill="#000" fill-rule="evenodd"/></svg>

<svg width="42" height="42" viewBox="0 0 42 42" fill="none" xmlns="http://www.w3.org/2000/svg">
<path fill-rule="evenodd" clip-rule="evenodd" d="M7.27941 2.48376C7.04125 2.70428 7 2.93492 7 3V23.0809C10.2175 23.3937 13.0831 24.1022 15.2146 24.8719C16.0978 25.1909 16.8715 25.5262 17.5 25.8573V5.24115C17.3813 5.13019 17.1832 4.97847 16.8967 4.7943C16.2994 4.41028 15.4442 3.96552 14.4742 3.54116C12.4918 2.67387 10.2791 2 9 2C7.9882 2 7.50258 2.27712 7.27941 2.48376ZM19.5 5.23797V25.7845C19.7311 25.678 19.9702 25.5799 20.2088 25.4897C21.4302 25.0277 22.8686 24.6893 23.8211 24.5161C24.3645 24.4173 24.8851 24.7777 24.9839 25.3211C25.0827 25.8645 24.7223 26.3851 24.1789 26.4839C23.298 26.644 21.9865 26.9556 20.9162 27.3603C20.375 27.565 19.9512 27.7731 19.6807 27.9652C19.5767 28.0391 19.5207 28.0919 19.4926 28.1223C19.4323 28.6169 19.0109 29 18.5 29H3.5C2.88152 29 2.01321 28.787 1.28372 28.1567C0.518047 27.4951 0 26.4558 0 25V6.5C0 6.00664 0.139781 5.28887 0.588466 4.6657C1.07386 3.99153 1.87408 3.5 3 3.5H5V3C5 2.39841 5.25875 1.62906 5.92059 1.01624C6.59742 0.389551 7.6118 0 9 0C10.7209 0 13.2582 0.826126 15.2758 1.70884C16.3058 2.15948 17.2631 2.65222 17.9783 3.11195C18.1606 3.22915 18.3359 3.34974 18.4974 3.4724C18.6583 3.34972 18.8332 3.22915 19.0155 3.11195C19.7331 2.65062 20.6993 2.15692 21.7574 1.70528C23.8447 0.814372 26.495 0 28.5 0C29.0974 0 30.0073 0.114272 30.8077 0.498477C31.6314 0.893844 32.5 1.67471 32.5 3V3.61932C33.0151 3.46014 33.6037 3.29342 34.1652 3.17292C34.7453 3.04842 35.4039 2.94794 35.9574 3.00243C36.2306 3.02933 36.5965 3.10388 36.9157 3.33693C37.2914 3.61116 37.5 4.03063 37.5 4.5V17C37.5 17.5523 37.0523 18 36.5 18C35.9477 18 35.5 17.5523 35.5 17V4.99061C35.2698 5.00311 34.9609 5.04768 34.5848 5.12839C33.8667 5.28252 33.0897 5.52477 32.5 5.71934V17C32.5 17.5523 32.0523 18 31.5 18C30.9477 18 30.5 17.5523 30.5 17V3C30.5 2.72529 30.3686 2.50616 29.9423 2.30152C29.4927 2.08573 28.9026 2 28.5 2C26.905 2 24.5553 2.68563 22.5426 3.54472C21.5507 3.96808 20.6919 4.41188 20.097 4.7943C19.8121 4.97744 19.6166 5.12825 19.5 5.23797ZM5 5.5H3C2.52592 5.5 2.32614 5.67513 2.21153 5.8343C2.06022 6.04446 2 6.32669 2 6.5V25C2 25.9442 2.31529 26.4049 2.59128 26.6433C2.90346 26.913 3.28514 27 3.5 27H15.1867C14.9807 26.9179 14.7635 26.8354 14.5354 26.7531C12.3699 25.9711 9.33515 25.2408 5.92875 24.9975C5.40545 24.9601 5 24.5246 5 24V5.5ZM17.5889 28.3219C17.5882 28.3219 17.5828 28.3156 17.5751 28.3033C17.5858 28.3158 17.5897 28.322 17.5889 28.3219ZM29 23.0043V32C29 32.5523 28.5523 33 28 33H24.9142L31.5 39.5858L38.0858 33H35C34.4477 33 34 32.5523 34 32V23.0005C33.9999 23.0005 34.0001 23.0005 34 23.0005L33.9957 23H29.0005C29.0005 23.0001 29.0005 22.9999 29.0005 23L29 23.0043ZM27.3885 21.7907C27.7239 21.3249 28.2741 21 29 21H34C34.3267 21 34.7945 21.0898 35.2093 21.3885C35.6751 21.7239 36 22.2741 36 23V31H40.5C40.9045 31 41.2691 31.2436 41.4239 31.6173C41.5787 31.991 41.4931 32.4211 41.2071 32.7071L32.2071 41.7071C31.8166 42.0976 31.1834 42.0976 30.7929 41.7071L21.7929 32.7071C21.5069 32.4211 21.4213 31.991 21.5761 31.6173C21.7309 31.2436 22.0955 31 22.5 31H27V23C27 22.6733 27.0898 22.2055 27.3885 21.7907Z" fill="black"/>
</svg>
